X:790
T:Reel 790
M:4/4
K:Gmaj
L:1/8
Bc|d>G (3GGG dcBG|dGGd edge|d>G (3GGG ecBd|cBAB cdeg|d>G (3GGG BABd|dBgB eBcB|c>d (3AAA eaag|fdef g2|dg| (3aba gf efge|dBGB AGFG|ABcd edeg|adgf ecBc|d>g (3gfg bgef|gfga gfeg|defg afdB|cBAB c2|
